svgs/duotone/garage.svg

<svg xmlns="http://www.w3.org/2000/svg" viewBox="0 0 640 512"><!--! Font Awesome Pro 6.6.0 by @fontawesome - https://fontawesome.com License - https://fontawesome.com/license (Commercial License) Copyright 2024 Fonticons, Inc. --><path class="fa-secondary" style="fill:var(--fa-secondary-color,inherit);opacity:var(--fa-secondary-opacity,.4);" d="M128 224l384 0 0 96-384 0 0-96zm0 128l384 0 0 160-384 0 0-160zm128 80c0 8.8 7.2 16 16 16l96 0c8.8 0 16-7.2 16-16s-7.2-16-16-16l-96 0c-8.8 0-16 7.2-16 16z"/><path class="fa-primary" style="fill:var(--fa-primary-color,inherit);opacity:var(--fa-primary-opacity,1);" d="M0 171.3V488c0 13.3 10.7 24 24 24H72c13.3 0 24-10.7 24-24V224c0-17.7 14.3-32 32-32H512c17.7 0 32 14.3 32 32V488c0 13.3 10.7 24 24 24h48c13.3 0 24-10.7 24-24V171.3c0-26.2-15.9-49.7-40.2-59.4L331.9 4.8c-7.6-3.1-16.1-3.1-23.8 0L40.2 111.9C15.9 121.6 0 145.2 0 171.3z"/></svg>

<svg xmlns="http://www.w3.org/2000/svg" viewBox="0 0 640 512"><!--! Font Awesome Pro 6.4.2 by @fontawesome - https://fontawesome.com License - https://fontawesome.com/license (Commercial License) Copyright 2023 Fonticons, Inc. --><path class="fa-primary" style="fill:var(--fa-primary-color,inherit);opacity:var(--fa-primary-opacity,1);" d="M0 171.3V488c0 13.3 10.7 24 24 24H72c13.3 0 24-10.7 24-24V224c0-17.7 14.3-32 32-32H512c17.7 0 32 14.3 32 32V488c0 13.3 10.7 24 24 24h48c13.3 0 24-10.7 24-24V171.3c0-26.2-15.9-49.7-40.2-59.4L331.9 4.8c-7.6-3.1-16.1-3.1-23.8 0L40.2 111.9C15.9 121.6 0 145.2 0 171.3z"/><path class="fa-secondary" style="fill:var(--fa-secondary-color,inherit);opacity:var(--fa-secondary-opacity,.4);" d="M512 224v96H128V224H512zM128 352H512V512H128V352zm128 80c0 8.8 7.2 16 16 16h96c8.8 0 16-7.2 16-16s-7.2-16-16-16H272c-8.8 0-16 7.2-16 16z"/></svg>
